src/main/resources/icons/AllIcons/nodes/webFolder.svg

<!-- Copyright 2000-2021 JetBrains s.r.o. Use of this source code is governed by the Apache 2.0 license that can be found in the LICENSE file. -->
<svg xmlns="http://www.w3.org/2000/svg" width="16" height="16" viewBox="0 0 16 16">
  <g fill="none" fill-rule="evenodd">
    <path fill="#9AA7B0" fill-opacity=".8" d="M7.9082,10.4053 C7.3982,10.9143 6.7212,11.1953 6.0002,11.1953 C4.5122,11.1953 3.3022,9.9853 3.3002,8.4993 C3.3002,7.7783 3.5802,7.1003 4.0892,6.5903 C4.5982,6.0813 5.2762,5.8003 5.9972,5.8003 C7.4852,5.8003 8.6962,7.0093 8.6982,8.4973 C8.6982,9.2183 8.4182,9.8953 7.9082,10.4053 Z M7.9842,4.0003 L6.6962,2.7113 C6.3042,2.3203 5.5322,2.0003 4.9782,2.0003 L1.0512,2.0003 C1.0232,2.0003 1.0002,2.0233 1.0002,2.0513 L1.0002,13.0003 L15.0002,13.0003 L15.0002,4.0003 L7.9842,4.0003 Z"/>
    <path fill="#40B6E0" d="M6,10.4951 C4.896,10.4951 4.001,9.6001 4,8.4981 C3.999,7.3941 4.894,6.5001 5.997,6.5001 C7.102,6.5001 7.997,7.3941 7.998,8.4981 C7.999,9.6001 7.104,10.4951 6,10.4951"/>
  </g>
</svg>

<svg xmlns="http://www.w3.org/2000/svg" width="16" height="16" viewBox="0 0 16 16"><rect id="frame" width="16" height="16" fill="none"/><g fill="none" fill-rule="evenodd"><path fill="#9AA7B0" fill-opacity=".8" d="M7.908 10.405c-.51.51-1.187.79-1.908.79A2.703 2.703 0 0 1 3.3 8.5c0-.72.28-1.399.79-1.909a2.681 2.681 0 0 1 1.907-.79 2.704 2.704 0 0 1 2.701 2.697 2.68 2.68 0 0 1-.79 1.908zM7.984 4L6.696 2.711c-.392-.39-1.164-.71-1.718-.71H1.051a.051.051 0 0 0-.05.05v10.95h14V4H7.983z"/><path fill="#40B6E0" d="M6 10.495A1.996 1.996 0 1 1 5.997 6.5 1.997 1.997 0 1 1 6 10.495"/></g></svg>
